X:21
T:greenTotal
R:reel
M:4/4
L:1/8
Q:1/4=199
K:D
D4 D4|D4 D4|D2 D2 D2 D2|D2 D2 D2 D2|
|:"D"AF~F2 "D"AFEF|"D"DF~F2 "D"ABde|"D"~f2df "Bm"efdB|"D"Adfd "Bm"edBd|
"D"AF~F2 "D"AFEF|"D"DF~F2 "D"ABde|"D"~f2df "Bm"efdB|1 "D"AFEF "Bm"D3B:|2 "D"AFEF "D"D3e||
|:"D"fa~a2 "Bm"bfaf|"D"defd "Em"efde|"D"f2df "Bm"efdB|"D"Adfd "Bm"edBd|
  "D"fa~a2 "Bm"bfaf|"D"defd "Em"e2de|"D"f2df "Bm"efdB|1 "D"AFEF "D"D3e:|2 "D"AFEF "Bm"D3B||
|:"D"AF~F2 "D"AFEF|"D"DF~F2 "D"ABde|"D"~f2df "Bm"efdB|"D"Adfd "Bm"edBd|
"D"AF~F2 "D"AFEF|"D"DF~F2 "D"ABde|"D"~f2df "Bm"efdB|1 "D"AFEF "Bm"D3B:|2 "D"AFEF "D"D3e||
|:"D"fa~a2 "Bm"bfaf|"D"defd "Em"efde|"D"f2df "Bm"efdB|"D"Adfd "Bm"edBd|
  "D"fa~a2 "Bm"bfaf|"D"defd "Em"e2de|"D"f2df "Bm"efdB|1 "D"AFEF "D"D3e:|2 "D"AFEF "Bm"D3B||
T: Maid Behind The Bar / Glen Allen
K: Dmaj
Q: 1/4=225
|:"D"FAAB "D"AFED|"D"FAAB "D"A2de|"Bm"fBBA "Bm"Bcde|"D"fdef "Em"edBA|
"D"FAAB "D"AFED|"D"FAAB "D"A2de|"Bm"fBBA "Bm"BcdB|"D"AFEF "D"D3A:|
|:"D"faag "D"fdde|"D"(3fed ad "D"fddf|"G"gfga "Em"beef|"Em"gebe "Em"geea|
"D"fgaf "Bm"bfaf|"D"defd "Em"e2 de|"Bm"fBBA "Bm"BcdB|"D"AFEF "G"D3g:|
|:"D"FAAB "D"AFED|"D"FAAB "D"A2de|"Bm"fBBA "Bm"Bcde|"D"fdef "Em"edBA|
"D"FAAB "D"AFED|"D"FAAB "D"A2de|"Bm"fBBA "Bm"BcdB|"D"AFEF "D"D3A:|
|:"D"faag "D"fdde|"D"(3fed ad "D"fddf|"G"gfga "Em"beef|"Em"gebe "Em"geea|
"D"fgaf "Bm"bfaf|"D"defd "Em"e2 de|"Bm"fBBA "Bm"BcdB|"D"AFEF "G"D3g:|
|:"D"FAAB "D"AFED|"D"FAAB "D"A2de|"Bm"fBBA "Bm"Bcde|"D"fdef "Em"edBA|
"D"FAAB "D"AFED|"D"FAAB "D"A2de|"Bm"fBBA "Bm"BcdB|"D"AFEF "D"D3A:|
|:"D"faag "D"fdde|"D"(3fed ad "D"fddf|"G"gfga "Em"beef|"Em"gebe "Em"geea|
"D"fgaf "Bm"bfaf|"D"defd "Em"e2 de|"Bm"fBBA "Bm"BcdB|"D"AFEF "G"D3g:|
K: Gmaj
Q: 1/4=240
|"G"G2DG "Em"EGDE|"G"G2BG "Em"AGEG|"Am"A2EA "D"FAEA|"D"ABcd "Em"edBA|!
"G"G2DG "Em"EGDE|"G"G2BG "Em"AGEG|"Am"cBcd "Em"efge|"Bm"dBAB "G"G2DE:|!
|"G"g2dg "Em"egde|"G"g2bg "Em"ageg|"Am"a2ea "D"faeg|"D"a2bg "D"agef|!
"G"g2dg "Em"egde|"G"g2bg "D"aged|"Am"cBcd "Em"efge|"Bm"dBAB "G"G2Bd:|!
|"G"G2DG "Em"EGDE|"G"G2BG "Em"AGEG|"Am"A2EA "D"FAEA|"D"ABcd "Em"edBA|!
"G"G2DG "Em"EGDE|"G"G2BG "Em"AGEG|"Am"cBcd "Em"efge|"Bm"dBAB "G"G2DE:|!
|"G"g2dg "Em"egde|"G"g2bg "Em"ageg|"Am"a2ea "D"faeg|"D"a2bg "D"agef|!
"G"g2dg "Em"egde|"G"g2bg "D"aged|"Am"cBcd "Em"efge|"Bm"dBAB "G"G2Bd:|!
|"G"G2DG "Em"EGDE|"G"G2BG "Em"AGEG|"Am"A2EA "D"FAEA|"D"ABcd "Em"edBA|!
"G"G2DG "Em"EGDE|"G"G2BG "Em"AGEG|"Am"cBcd "Em"efge|"Bm"dBAB "G"G2DE:|!
|"G"g2dg "Em"egde|"G"g2bg "Em"ageg|"Am"a2ea "D"faeg|"D"a2bg "D"agef|!
"G"g2dg "Em"egde|"G"g2bg "D"aged|"Am"cBcd "Em"efge|"Bm"dBAB "G"G2Bd:|!
